assets/svg/character-1.svg

<svg fill="none" height="95" viewBox="0 0 102 95" width="102" xmlns="http://www.w3.org/2000/svg" xmlns:xlink="http://www.w3.org/1999/xlink"><linearGradient id="a"><stop offset="0" stop-color="#a470ff"/><stop offset=".437361" stop-color="#a470ff"/><stop offset="1" stop-color="#5f2abf"/></linearGradient><linearGradient id="b" gradientUnits="userSpaceOnUse" x1="81.6063" x2="101.097" xlink:href="#a" y1="24.7969" y2="24.7969"/><linearGradient id="c" gradientUnits="userSpaceOnUse" x1="27.1175" x2="97.9826" y1="57.8594" y2="57.8594"><stop offset="0" stop-color="#c44094"/><stop offset=".488831" stop-color="#f7b"/><stop offset=".632615" stop-color="#f7b"/><stop offset="1" stop-color="#ff0"/></linearGradient><linearGradient id="d" gradientUnits="userSpaceOnUse" x1=".902415" x2="36.5224" xlink:href="#a" y1="56.8697" y2="56.8697"/><mask id="e" fill="#fff"><path d="m48.2421 25.4543c-17.8978 7.9017-26.0001 28.8166-18.0975 46.713 7.9026 17.8974 28.816 26.0002 46.7138 18.0971 17.8965-7.9021 25.9986-28.8161 18.0977-46.7135-5.8485-13.2444-18.8208-21.125-32.4246-21.1241-4.7788 0-9.6373.9735-14.2894 3.0275z" fill="#fff"/></mask><mask id="f" fill="#fff"><path d="m3.5844 38.2633c-3.113279 2.5303-3.5847556 7.1056-1.054 10.218l21.0912 25.941c2.5317 3.1133 7.1066 3.5847 10.2194 1.0544 3.1123-2.5317 3.5837-7.106 1.0534-10.2193l-21.0917-25.9411c-1.4358-1.7656-3.5294-2.6809-5.64021-2.6809-1.61074 0-3.23144.5325-4.57809 1.6279z" fill="#fff"/></mask><path d="m87.9044 1.82382-.0001.00001c-3.5578.53391-6.0085 3.85019-5.4746 7.40811l-.7417.1113.7417-.11128 4.9605 33.06324v.0001c.5339 3.5577 3.8511 6.0086 7.4081 5.4755 3.5577-.5335 6.0097-3.8511 5.4757-7.409l-4.9607-33.06328c-.4846-3.2288-3.2635-5.54786-6.4335-5.54786-.3213 0-.6472.02388-.9754.07316zm13.1106 38.42668-4.96-33.06331z" fill="url(#b)" stroke="#00005a" stroke-width="1.5"/><path d="m89.4531 42.2304-4.9609-33.06333c-.5558-3.70294 1.7895-7.16944 5.3304-8.09994-.6588-.08676-1.3395-.089621-2.0293.01382-3.9675.59539-6.7009 4.29404-6.1055 8.26107l4.961 33.06378c.5949 3.9671 4.294 6.7009 8.261 6.1055.2646-.0395.5225-.0953.7756-.1616-3.1295-.4123-5.7408-2.842-6.2323-6.1193z" fill="#bef214"/><path d="m94.9098 48.5118c-3.9675.5954-7.6661-2.1384-8.261-6.1059l-4.961-33.06291c-.5954-3.96751 2.138-7.66616 6.1055-8.26155s7.6661 2.13844 8.2611 6.10547l4.9606 33.06339c.596 3.9675-2.1377 7.6661-6.1052 8.2615z" stroke="#00005a" stroke-linecap="round" stroke-linejoin="round" stroke-miterlimit="10" stroke-width="1.5"/><path d="m85.1369 30.5667c2.6356 3.4841 11.3848 9.6287 15.7071 10.2598.079 2.9026-1.4735 5.7656-4.1068 6.9893-12.4626 3.4345-12.3363-17.3955-11.6003-17.2491z" fill="#00005a"/><path d="m48.2421 25.4543c-17.8978 7.9017-26.0001 28.8166-18.0975 46.713 7.9026 17.8974 28.816 26.0002 46.7138 18.0971 17.8965-7.9021 25.9986-28.8161 18.0977-46.7135-5.8485-13.2444-18.8208-21.125-32.4246-21.1241-4.7788 0-9.6373.9735-14.2894 3.0275z" fill="url(#c)"/><path d="m30.1446 72.1673 1.3721-.6059zm46.7138 18.0971-.6059-1.3722h.0001zm18.0977-46.7135 1.3722-.6059v.0001zm-32.4246-21.1241.0001 1.5h-.0001zm-13.6835 4.3997c-17.14 7.5671-24.8992 27.5963-17.3313 44.7349l-2.7443 1.2119c-8.2373-18.6544.2082-40.455 18.8639-48.6912zm-17.3313 44.7349c7.568 17.1397 27.5959 24.8992 44.7358 17.3308l1.2119 2.7444c-18.6558 8.2377-40.4548-.2082-48.692-18.8634zm44.7359 17.3308c17.1386-7.5675 24.8974-27.5959 17.3313-44.7355l2.7444-1.2116c8.2357 18.6552-.2097 40.4547-18.864 48.6915zm17.3313-44.7353c-5.6-12.6817-18.0212-20.231-31.0523-20.2301l-.0002-3c14.1766-.001 27.6998 8.211 33.7969 22.0182zm-31.0524-20.2301c-4.5741 0-9.2259.9315-13.6835 2.8997l-1.2117-2.7444c4.8464-2.1399 9.9116-3.1553 14.8952-3.1553z" fill="#00005a" mask="url(#e)"/><path d="m34.4453 70.8773c-7.9021-17.897.2002-38.8114 18.0971-46.714.6712-.296 1.3481-.5625 2.0269-.8141-2.1332.4952-4.2511 1.1879-6.3281 2.1046-17.8969 7.9025-25.9992 28.8169-18.0971 46.7139 7.6061 17.2257 27.2649 25.3705 44.6865 18.9118-16.248 3.7758-33.4003-4.3818-40.3853-20.2022z" fill="#fff300"/><g stroke="#00005a" stroke-width="1.5"><path d="m68.4356 76.916c11.1503 0 20.1892-9.0389 20.1892-20.1892 0-11.1499-9.0389-20.1887-20.1892-20.1887-11.1499 0-20.1887 9.0388-20.1887 20.1887 0 11.1503 9.0388 20.1892 20.1887 20.1892z" fill="#fff"/><path d="m94.9551 43.5509c7.9019 17.897-.2002 38.8113-18.0971 46.7139-17.8969 7.9022-38.8113-.2002-46.7139-18.0971-7.9021-17.8974.2002-38.8118 18.0971-46.7139 17.8974-7.9021 38.8118.2002 46.7139 18.0971z" stroke-linecap="round" stroke-linejoin="round" stroke-miterlimit="10"/><path d="m89.118 58.2564c2.944 1.023 5.7517 2.4311 8.3411 4.193" stroke-linecap="round" stroke-linejoin="round" stroke-miterlimit="10"/><path d="m42.4608 86.4892c1.0329-6.8734 4.0742-13.356 8.7792-18.5557" stroke-linecap="round" stroke-linejoin="round" stroke-miterlimit="10"/><path d="m90.9288 66.8487-.0002-.0005c-.3209-.7262.0081-1.5761.7352-1.897l.0003-.0001c.7268-.3211 1.5767.0082 1.8976.7351.3209.727-.0081 1.5766-.735 1.8979zm0 0c.3208.7271 1.1705 1.0563 1.8976.7355z" fill="#00005a"/></g><path d="m3.5844 38.2633c-3.113279 2.5303-3.5847556 7.1056-1.054 10.218l21.0912 25.941c2.5317 3.1133 7.1066 3.5847 10.2194 1.0544 3.1123-2.5317 3.5837-7.106 1.0534-10.2193l-21.0917-25.9411c-1.4358-1.7656-3.5294-2.6809-5.64021-2.6809-1.61074 0-3.23144.5325-4.57809 1.6279z" fill="url(#d)"/><path d="m2.5304 48.4813 1.16381-.9464.00005.0001zm21.0912 25.941-1.1637.9464-.0001-.0001zm10.2194 1.0544.9465 1.1637-.0004.0003zm1.0534-10.2193 1.1639-.9463.0002.0003zm-21.0917-25.9411 1.1638-.9463.0001.0001zm-9.27225.1111c-2.47015 2.0076-2.84437 5.6379-.83624 8.1075l-2.32761 1.8927c-3.05339-3.7551-2.48466-9.2753 1.27174-12.3283zm-.83619 8.1076 21.09124 25.9411-2.3277 1.8925-21.09126-25.9411zm21.09114 25.941c2.0091 2.4706 5.6394 2.8446 8.1094.8368l1.8923 2.3279c-3.7556 3.0528-9.275 2.4839-12.3292-1.272zm8.109.8371c2.4698-2.0091 2.8439-5.639.836-8.1096l2.3281-1.8921c3.0526 3.7559 2.4838 9.2746-1.271 12.329zm.8362-8.1094-21.0917-25.9411 2.3277-1.8925 21.0917 25.941zm-21.0917-25.941c-1.1388-1.4004-2.79746-2.1273-4.47641-2.1273v-3c2.54261 0 5.07121 1.1037 6.80401 3.2346zm-4.47641-2.1273c-1.27898 0-2.5623.4218-3.63154 1.2916l-1.89311-2.3273c1.62407-1.3211 3.58214-1.9643 5.52465-1.9643z" fill="#00005a" mask="url(#f)"/><path d="m26.3217 72.6228-21.09174-25.9411c-2.32959-2.8649-2.10936-6.9649.36705-9.5729-.71027.2684-1.39146.6488-2.01307 1.1541-3.112798 2.5307-3.58424547 7.106-1.05349 10.2183l21.09175 25.9411c2.5307 3.1128 7.1055 3.5843 10.2183 1.0535.2479-.2011.4724-.4195.6865-.6449-2.8464 1.0773-6.1799.2831-8.2053-2.2081z" fill="#bef214"/><path d="m33.8407 75.4763c3.1128-2.5307 3.5843-7.1055 1.0535-10.2183l-21.0917-25.9411c-2.5308-3.1128-7.10605-3.5848-10.21838-1.0535-3.112794 2.5307-3.58424232 7.1055-1.05348 10.2183l21.09166 25.9411c2.5308 3.1128 7.1056 3.5843 10.2184 1.0535z" stroke="#00005a" stroke-linecap="round" stroke-linejoin="round" stroke-miterlimit="10" stroke-width="1.5"/><path d="m33.5856 76.7114c.3798.6843.8112 1.3704 1.2735 2.0256.0637-1.1332.1671-2.2642.3098-3.3901-.5086.5075-1.0539.9653-1.5833 1.3645z" fill="#00005a" stroke="#00005a" stroke-width="1.5"/><path d="m87.3298 48.3455c4.601 10.4205-.1163 22.598-10.5368 27.1991-10.421 4.601-22.5981-.1168-27.1996-10.5368-4.601-10.421.1168-22.5981 10.5373-27.1991 10.4205-4.6011 22.5981.1163 27.1991 10.5368z" stroke="#00005a" stroke-linecap="round" stroke-linejoin="round" stroke-miterlimit="10" stroke-width="1.5"/><path d="m66.0097 57.7595c1.5532 3.5181.6349 7.5003-2.0009 10.0054 2.885 1.1588 6.2134 1.1993 9.2805-.155 6.0384-2.6662 8.7722-9.7222 6.1061-15.7605-2.6662-6.0383-9.7227-8.7722-15.761-6.106-3.0673 1.3543-5.28 3.8412-6.3668 6.7545 3.6268-.2604 7.1887 1.7437 8.742 5.2615z" fill="#00005a" stroke="#00005a" stroke-width="1.5"/></svg>

<svg width="102" height="95" viewBox="0 0 102 95" fill="none" xmlns="http://www.w3.org/2000/svg">
<path d="M87.9044 1.82382L87.9043 1.82383C84.3465 2.35774 81.8958 5.67402 82.4297 9.23194L81.688 9.34324L82.4297 9.23196L87.3902 42.2952C87.3902 42.2952 87.3902 42.2952 87.3902 42.2953C87.9241 45.853 91.2413 48.3039 94.7983 47.7708C98.356 47.2373 100.808 43.9197 100.274 40.3618L100.274 40.3618L95.3133 7.29852C94.8287 4.06972 92.0498 1.75066 88.8798 1.75066C88.5585 1.75066 88.2326 1.77454 87.9044 1.82382ZM101.015 40.2505L96.055 7.18719L101.015 40.2505Z" fill="url(#paint0_linear_1_506)" stroke="#00005A" stroke-width="1.5"/>
<path d="M89.4531 42.2304L84.4922 9.16707C83.9364 5.46413 86.2817 1.99763 89.8226 1.06713C89.1638 0.98037 88.4831 0.977509 87.7933 1.08095C83.8258 1.67634 81.0924 5.37499 81.6878 9.34202L86.6488 42.4058C87.2437 46.3729 90.9428 49.1067 94.9098 48.5113C95.1744 48.4718 95.4323 48.416 95.6854 48.3497C92.5559 47.9374 89.9446 45.5077 89.4531 42.2304Z" fill="#BEF214"/>
<path d="M94.9098 48.5118C90.9423 49.1072 87.2437 46.3734 86.6488 42.4059L81.6878 9.34299C81.0924 5.37548 83.8258 1.67683 87.7933 1.08144C91.7608 0.48605 95.4594 3.21988 96.0544 7.18691L101.015 40.2503C101.611 44.2178 98.8773 47.9164 94.9098 48.5118Z" stroke="#00005A" stroke-width="1.5" stroke-miterlimit="10" stroke-linecap="round" stroke-linejoin="round"/>
<path d="M85.1369 30.5667C87.7725 34.0508 96.5217 40.1954 100.844 40.8265C100.923 43.7291 99.3705 46.5921 96.7372 47.8158C84.2746 51.2503 84.4009 30.4203 85.1369 30.5667Z" fill="#00005A"/>
<mask id="path-5-inside-1_1_506" fill="white">
<path d="M48.2421 25.4543C30.3443 33.356 22.242 54.2709 30.1446 72.1673C38.0472 90.0647 58.9606 98.1675 76.8584 90.2644C94.7549 82.3623 102.857 61.4483 94.9561 43.5509C89.1076 30.3065 76.1353 22.4259 62.5315 22.4268C57.7527 22.4268 52.8942 23.4003 48.2421 25.4543Z"/>
</mask>
<path d="M48.2421 25.4543C30.3443 33.356 22.242 54.2709 30.1446 72.1673C38.0472 90.0647 58.9606 98.1675 76.8584 90.2644C94.7549 82.3623 102.857 61.4483 94.9561 43.5509C89.1076 30.3065 76.1353 22.4259 62.5315 22.4268C57.7527 22.4268 52.8942 23.4003 48.2421 25.4543Z" fill="url(#paint1_linear_1_506)"/>
<path d="M30.1446 72.1673L31.5167 71.5614L31.5167 71.5614L30.1446 72.1673ZM76.8584 90.2644L76.2525 88.8922L76.2526 88.8922L76.8584 90.2644ZM94.9561 43.5509L96.3283 42.945L96.3283 42.9451L94.9561 43.5509ZM62.5315 22.4268L62.5316 23.9268H62.5315V22.4268ZM48.848 26.8265C31.708 34.3936 23.9488 54.4228 31.5167 71.5614L28.7724 72.7733C20.5351 54.1189 28.9806 32.3183 47.6363 24.0821L48.848 26.8265ZM31.5167 71.5614C39.0847 88.7011 59.1126 96.4606 76.2525 88.8922L77.4644 91.6366C58.8086 99.8743 37.0096 91.4284 28.7724 72.7732L31.5167 71.5614ZM76.2526 88.8922C93.3912 81.3247 101.15 61.2963 93.5839 44.1567L96.3283 42.9451C104.564 61.6003 96.1186 83.3998 77.4643 91.6366L76.2526 88.8922ZM93.5839 44.1569C87.9839 31.4752 75.5627 23.9259 62.5316 23.9268L62.5314 20.9268C76.708 20.9258 90.2312 29.1378 96.3283 42.945L93.5839 44.1569ZM62.5315 23.9268C57.9574 23.9268 53.3056 24.8583 48.848 26.8265L47.6363 24.0821C52.4827 21.9422 57.5479 20.9268 62.5315 20.9268V23.9268Z" fill="#00005A" mask="url(#path-5-inside-1_1_506)"/>
<path d="M34.4453 70.8773C26.5432 52.9803 34.6455 32.0659 52.5424 24.1633C53.2136 23.8673 53.8905 23.6008 54.5693 23.3492C52.4361 23.8444 50.3182 24.5371 48.2412 25.4538C30.3443 33.3563 22.242 54.2707 30.1441 72.1677C37.7502 89.3934 57.409 97.5382 74.8306 91.0795C58.5826 94.8553 41.4303 86.6977 34.4453 70.8773Z" fill="#FFF300"/>
<path d="M68.4356 76.916C79.5859 76.916 88.6248 67.8771 88.6248 56.7268C88.6248 45.5769 79.5859 36.5381 68.4356 36.5381C57.2857 36.5381 48.2469 45.5769 48.2469 56.7268C48.2469 67.8771 57.2857 76.916 68.4356 76.916Z" fill="white" stroke="#00005A" stroke-width="1.5"/>
<path d="M94.9551 43.5509C102.857 61.4479 94.7549 82.3622 76.858 90.2648C58.9611 98.167 38.0467 90.0646 30.1441 72.1677C22.242 54.2703 30.3443 33.3559 48.2412 25.4538C66.1386 17.5517 87.053 25.654 94.9551 43.5509Z" stroke="#00005A" stroke-width="1.5" stroke-miterlimit="10" stroke-linecap="round" stroke-linejoin="round"/>
<path d="M89.118 58.2564C92.062 59.2794 94.8697 60.6875 97.4591 62.4494" stroke="#00005A" stroke-width="1.5" stroke-miterlimit="10" stroke-linecap="round" stroke-linejoin="round"/>
<path d="M42.4608 86.4892C43.4937 79.6158 46.535 73.1332 51.24 67.9335" stroke="#00005A" stroke-width="1.5" stroke-miterlimit="10" stroke-linecap="round" stroke-linejoin="round"/>
<path d="M90.9288 66.8487L90.9286 66.8482C90.6077 66.122 90.9367 65.2721 91.6638 64.9512L91.6641 64.9511C92.3909 64.63 93.2408 64.9593 93.5617 65.6862C93.8826 66.4132 93.5536 67.2628 92.8267 67.5841L90.9288 66.8487ZM90.9288 66.8487C91.2496 67.5758 92.0993 67.905 92.8264 67.5842L90.9288 66.8487Z" fill="#00005A" stroke="#00005A" stroke-width="1.5"/>
<mask id="path-13-inside-2_1_506" fill="white">
<path d="M3.5844 38.2633C0.471121 40.7936 -0.000355601 45.3689 2.5304 48.4813L23.6216 74.4223C26.1533 77.5356 30.7282 78.007 33.841 75.4767C36.9533 72.945 37.4247 68.3707 34.8944 65.2574L13.8027 39.3163C12.3669 37.5507 10.2733 36.6354 8.16249 36.6354C6.55175 36.6354 4.93105 37.1679 3.5844 38.2633Z"/>
</mask>
<path d="M3.5844 38.2633C0.471121 40.7936 -0.000355601 45.3689 2.5304 48.4813L23.6216 74.4223C26.1533 77.5356 30.7282 78.007 33.841 75.4767C36.9533 72.945 37.4247 68.3707 34.8944 65.2574L13.8027 39.3163C12.3669 37.5507 10.2733 36.6354 8.16249 36.6354C6.55175 36.6354 4.93105 37.1679 3.5844 38.2633Z" fill="url(#paint2_linear_1_506)"/>
<path d="M2.5304 48.4813L3.69421 47.5349L3.69426 47.535L2.5304 48.4813ZM23.6216 74.4223L22.4579 75.3687L22.4578 75.3686L23.6216 74.4223ZM33.841 75.4767L34.7875 76.6404L34.7871 76.6407L33.841 75.4767ZM34.8944 65.2574L36.0583 64.3111L36.0585 64.3114L34.8944 65.2574ZM13.8027 39.3163L14.9665 38.37L14.9666 38.3701L13.8027 39.3163ZM4.53045 39.4274C2.0603 41.435 1.68608 45.0653 3.69421 47.5349L1.3666 49.4276C-1.68679 45.6725 -1.11806 40.1523 2.63834 37.0993L4.53045 39.4274ZM3.69426 47.535L24.7855 73.4761L22.4578 75.3686L1.36654 49.4275L3.69426 47.535ZM24.7854 73.476C26.7945 75.9466 30.4248 76.3206 32.8948 74.3128L34.7871 76.6407C31.0315 79.6935 25.5121 79.1246 22.4579 75.3687L24.7854 73.476ZM32.8944 74.3131C35.3642 72.304 35.7383 68.6741 33.7304 66.2035L36.0585 64.3114C39.1111 68.0673 38.5423 73.586 34.7875 76.6404L32.8944 74.3131ZM33.7306 66.2037L12.6389 40.2626L14.9666 38.3701L36.0583 64.3111L33.7306 66.2037ZM12.6389 40.2627C11.5001 38.8623 9.84144 38.1354 8.16249 38.1354V35.1354C10.7051 35.1354 13.2337 36.2391 14.9665 38.37L12.6389 40.2627ZM8.16249 38.1354C6.88351 38.1354 5.60019 38.5572 4.53095 39.427L2.63784 37.0997C4.26191 35.7786 6.21998 35.1354 8.16249 35.1354V38.1354Z" fill="#00005A" mask="url(#path-13-inside-2_1_506)"/>
<path d="M26.3217 72.6228L5.22996 46.6817C2.90037 43.8168 3.1206 39.7168 5.59701 37.1088C4.88674 37.3772 4.20555 37.7576 3.58394 38.2629C0.471142 40.7936 -0.000305474 45.3689 2.53045 48.4812L23.6222 74.4223C26.1529 77.5351 30.7277 78.0066 33.8405 75.4758C34.0884 75.2747 34.3129 75.0563 34.527 74.8309C31.6806 75.9082 28.3471 75.114 26.3217 72.6228Z" fill="#BEF214"/>
<path d="M33.8407 75.4763C36.9535 72.9456 37.425 68.3708 34.8942 65.258L13.8025 39.3169C11.2717 36.2041 6.69645 35.7321 3.58412 38.2634C0.471326 40.7941 -0.000122319 45.3689 2.53064 48.4817L23.6223 74.4228C26.1531 77.5356 30.7279 78.0071 33.8407 75.4763Z" stroke="#00005A" stroke-width="1.5" stroke-miterlimit="10" stroke-linecap="round" stroke-linejoin="round"/>
<path d="M33.5856 76.7114C33.9654 77.3957 34.3968 78.0818 34.8591 78.737C34.9228 77.6038 35.0262 76.4728 35.1689 75.3469C34.6603 75.8544 34.115 76.3122 33.5856 76.7114Z" fill="#00005A" stroke="#00005A" stroke-width="1.5"/>
<path d="M87.3298 48.3455C91.9308 58.766 87.2135 70.9435 76.793 75.5446C66.372 80.1456 54.1949 75.4278 49.5934 65.0078C44.9924 54.5868 49.7102 42.4097 60.1307 37.8087C70.5512 33.2076 82.7288 37.925 87.3298 48.3455Z" stroke="#00005A" stroke-width="1.5" stroke-miterlimit="10" stroke-linecap="round" stroke-linejoin="round"/>
<path d="M66.0097 57.7595C67.5629 61.2776 66.6446 65.2598 64.0088 67.7649C66.8938 68.9237 70.2222 68.9642 73.2893 67.6099C79.3277 64.9437 82.0615 57.8877 79.3954 51.8494C76.7292 45.8111 69.6727 43.0772 63.6344 45.7434C60.5671 47.0977 58.3544 49.5846 57.2676 52.4979C60.8944 52.2375 64.4563 54.2416 66.0096 57.7594L66.0097 57.7595Z" fill="#00005A" stroke="#00005A" stroke-width="1.5"/>
<defs>
<linearGradient id="paint0_linear_1_506" x1="81.6063" y1="24.7969" x2="101.097" y2="24.7969" gradientUnits="userSpaceOnUse">
<stop stop-color="#A470FF"/>
<stop offset="0.437361" stop-color="#A470FF"/>
<stop offset="1" stop-color="#5F2ABF"/>
</linearGradient>
<linearGradient id="paint1_linear_1_506" x1="27.1175" y1="57.8594" x2="97.9826" y2="57.8594" gradientUnits="userSpaceOnUse">
<stop stop-color="#C44094"/>
<stop offset="0.488831" stop-color="#FF77BB"/>
<stop offset="0.632615" stop-color="#FF77BB"/>
<stop offset="1" stop-color="#FFFF00"/>
</linearGradient>
<linearGradient id="paint2_linear_1_506" x1="0.902415" y1="56.8697" x2="36.5224" y2="56.8697" gradientUnits="userSpaceOnUse">
<stop stop-color="#A470FF"/>
<stop offset="0.437361" stop-color="#A470FF"/>
<stop offset="1" stop-color="#5F2ABF"/>
</linearGradient>
</defs>
</svg>
